svg/fluentui-system-icons/ic_fluent_image_multiple_32_regular.svg

<svg width="32" height="32" viewBox="0 0 32 32" fill="none" xmlns="http://www.w3.org/2000/svg">
<path d="M3 7C3 4.79086 4.79086 3 7 3H21C23.2091 3 25 4.79086 25 7V21C25 23.2091 23.2091 25 21 25H7C4.79086 25 3 23.2091 3 21V7ZM7 5C5.89543 5 5 5.89543 5 7V21C5 21.1914 5.02688 21.3765 5.07707 21.5517L12.3979 14.6377C13.2971 13.7884 14.7029 13.7884 15.6021 14.6377L22.9229 21.5517C22.9731 21.3765 23 21.1914 23 21V7C23 5.89543 22.1046 5 21 5H7ZM7 23H21C21.1661 23 21.3275 22.9798 21.4818 22.9416L14.2289 16.0917C14.1004 15.9704 13.8996 15.9704 13.7711 16.0917L6.51824 22.9416C6.67254 22.9798 6.8339 23 7 23ZM18.5 12C19.3284 12 20 11.3284 20 10.5C20 9.67157 19.3284 9 18.5 9C17.6716 9 17 9.67157 17 10.5C17 11.3284 17.6716 12 18.5 12ZM10.5 28.5C9.01946 28.5 7.72677 27.6956 7.03516 26.5H21C24.0376 26.5 26.5 24.0376 26.5 21V7.03513C27.6956 7.72674 28.5 9.01943 28.5 10.5V21C28.5 25.1421 25.1422 28.5 21 28.5H10.5Z" fill="#212121"/>
</svg>

<svg xmlns="http://www.w3.org/2000/svg" width="32" height="32"><path d="M3 7a4 4 0 0 1 4-4h14a4 4 0 0 1 4 4v14a4 4 0 0 1-4 4H7a4 4 0 0 1-4-4V7Zm4-2a2 2 0 0 0-2 2v14a2 2 0 0 0 .077.552l7.32-6.914c.9-.85 2.306-.85 3.205 0l7.32 6.914A2 2 0 0 0 23 21V7a2 2 0 0 0-2-2H7Zm0 18h14c.166 0 .328-.02.482-.058l-7.253-6.85a.333.333 0 0 0-.458 0l-7.253 6.85c.155.038.316.058.482.058Zm11.5-11a1.5 1.5 0 1 0 0-3 1.5 1.5 0 0 0 0 3Zm-8 16.5a3.998 3.998 0 0 1-3.465-2H21a5.5 5.5 0 0 0 5.5-5.5V7.035c1.196.692 2 1.984 2 3.465V21a7.5 7.5 0 0 1-7.5 7.5H10.5Z"/></svg>
